X:1
T:James Gibb editions
T:James Gibb editions
T:Gird your loins about with truth - Barnby
%%score [ ( 1 2 ) ( 3 4 ) ]
L:1/8
Q:1/4=100
M:4/4
K:C
V:1 treble nm="Midi_74"
V:2 treble 
V:3 bass nm="Midi_74"
V:4 bass 
V:1
"^Monteith (777. 3)""^with vigour""^Walter Chalmer Smith\n(1824-1908)""^Gird your loins about with truth""^Joseph Barnby\n(1838-96)""^Joseph Barnby\n(1838-96)" G3 G c2 c2 | %1
 c2 d2 e4 || A3 A d2 G2 | A2 B2 G4 ||[M:4/4] c2 G2 A2 f2 | e2 d2 c4 || !>!G4 d4 | c8 || c4 c4 |] %9
V:2
 G3 G c2 E2 | F2 F2 E4 || ^F3 F G2- D2 | E2 ^F2 G4 ||[M:4/4] G2 E2 F2 A2 | ^G2 E2 (E2"^1" ^F2) || %6
 G4 F4 | E8 || F4 E4 |] %9
V:3
 G,3 G, C2 C2 | A,2 B,2 C4 || D3 D D2 D2 | C2 C2 B,4 || %4
[M:4/4] C2"^1. Gird your loins about with truth;\nLife will not go always smooth,\nSinging lightsome songs of youth:\nPlay the man.\n\n2. Learn with justice to keep pace,\nSpurning what is vile and base;\nBravely ever set your face\nPlay the man.\n\n3. Fear not what the world may say,\nHold the strait and narrow way\nIn the open light of day,\nPlay the man." C2 C2 B,2 | %5
 B,2 B,2 (C2 D2) || %6
"^4. They will call you poor and weak,\nBeing merciful and meek:\nHeed them not; so you must seek\nPlay the man.\n\n5. Have the courage to be true,\nSteadfastly the right to do,\nLoving him that wrongeth you:\nPlay the man.\n\n6. Trust in God, and let them mock;\nThey will break, as they have broke,\nLike the waves upon the rock:\nPlay the man!" (E2 DC) (C2 B,2) | %7
 C8 || A,4 G,4 |] %9
V:4
 G,3 G, C2 A,2 | F,2 E,D, C,4 || C3 C B,2 B,,2 | C,2 D,2 (G,2 !courtesy!=F,2) || %4
[M:4/4] E,2 C,2 F,2 D,2 | E,2 ^G,2 (A,2- D,2) || G,4 G,,4 | C,8 || F,4 C,4 |] %9

